X:1
T:Title
%%score { ( 1 3 ) | 2 }
L:1/8
M:4/4
K:F
V:1 treble nm="Grand Piano"
V:3 treble 
V:2 bass 
V:1
 z4 z2[Q:1/4=100] FG | AAAA [GB]2 [GB][GB] | c2 d2 c2 z2 | [Ac][GB][GB][GB] [GB]2 z2 | %4
[M:3/4] [GB]A AA A2 |[M:1/4] FG |[M:4/4] AAAA [GB]2 [GB][GB] | c2 d2 c2 c[DFB] | %8
 [FA]2 [GB]2 [FA]2 G2 |[M:3/4] F6 |[M:1/4] C2 |[M:4/4] F>F FA c2 c2 | dccA c2 z2 | %13
 [Ac][GB][GB][FA] G2 c2 |[M:7/8] efe d [Ec]3 |[M:1/4] [EB]2 |[M:4/4] Acdc c2 A2 | %17
 [FA][FA][^CEA][A,EG] [A,DF]2 [DF][Fd] | [Fc]3 [EB] [FA]2 G2 |[M:3/4] F6 |] %20
V:2
 z4 z2 [F,A,][F,B,F] | [F,CF][F,CF][F,CF][F,CF] [C,C]2 [C,C][C,C] | [F,A,F]2 [F,B,F]2 [F,A,F]2 z2 | %3
 [C,C][C,C][C,C][C,C] [C,C]2 z2 |[M:3/4] [F,C][F,CF] [F,CF][F,CF] [F,CF]2 |[M:1/4] [F,A,][F,B,F] | %6
[M:4/4] [F,CF][F,CF][F,CF][F,CF] [C,C]2 [C,C][C,C] | [F,A,F]2 [F,B,F]2 [F,A,F]2 [F,A,F]B,, | %8
 [C,C]2 [C,C]2 [C,C]2 [C,B,C]2 |[M:3/4] [F,A,C]6 |[M:1/4] [F,A,]2 | %11
[M:4/4] [F,A,C]>[F,A,C] [F,A,C][F,CF] [F,A,F]2 [F,A,F]2 | [F,B,F][F,A,F][F,A,F][F,CF] [F,A,F]2 z2 | %13
 [C,C][C,C][C,C][C,C] [C,C]4 |[M:7/8][K:treble] [G,CG][G,CA][G,CG] [G,=B,F][K:bass] [C,C]3 | %15
[M:1/4] [C,C]2 |[M:4/4] [F,CF][F,A,F][F,B,F][F,A,F] [F,A,F]2 [F,CF]2 | %17
 [D,D][D,D]A,,A,, D,2 [B,,B,][B,,B,] | [C,A,]3 [C,G,] [C,C]2 [C,B,C]2 |[M:3/4] [F,A,C]6 |] %20
V:3
 x8 | x8 | x8 | x8 |[M:3/4] x6 |[M:1/4] x2 |[M:4/4] x8 | x8 | x8 |[M:3/4] x6 |[M:1/4] x2 | %11
[M:4/4] x8 | x8 | z4 E4 |[M:7/8] x7 |[M:1/4] x2 |[M:4/4] x8 | x8 | x8 |[M:3/4] x6 |] %20

